X:1
T:The Mountain Road
M:C
L:1/8
Q:80
C:Arr. by T. Tully
S:Reel
K:HP
[| B | \
c{e}c{G}ce{g}fc{g}ec | \
{gcecG}c2{g}ec{g}Be{g}AB | \
c{e}c{G}ce{g}fc{g}ec |
{g}dB{gcd}cA{gBd}BAaBc{e}c{G}ce{g}fc{g}ec | \
{gcecG}c2{g}ec{g}Be{g}AB | \
c{e}c{G}ce{g}fc{g}ec |
{g}A{d}A{e}AB{g}c{d}A{e}A|] [ | \
e | \
a{g}a{g}af{g}eA{gcd}ce | \
a{g}a{g}ag{a}fe{g}fg |
a{g}a{g}af{g}eA{gcd}ce | \
{g}dB{gcd}cA{g}BA{g}fea{g}a{g}af{g}ec{gcd}ce | \
a{g}a{g}ag{a}fe{g}fg |
a{g}a{g}af{g}eA{gcd}ce | \
{g}dB{gcd}cA{g}BA{g}fe|]
